X: 39759
T: Thames, The
R: hornpipe
M: 4/4
K: Gminor
|:fe|dbfd cgec|BfdB AecA|BFGA Bcde|=efgf agf_e|
dbfd cgec|BfdB AecA|BFGA Bcde|=efga b2:|
K:Fmaj
|:b2|afcA BecB|AFAc fagf|=eceg bgeg|f=efg a2 b2|
afcA BdcB|AFAc fagf|=eceg bgeg|f2 a2 f2:|

